X:63
T:Fishers Hornpipe. JBu.63
O:England,South Yorkshire
S:Joshua Burnett’s MS,c1835,S.Yorkshire
M:C|
L:1/8
Q:1/2=90
R:.hornpipe
Z:vmp.R.Greig.2011
K:D
dc|dAFA GBAG|FAFA GBAG|FDFD GEGE|FDFDE2dc|
dAFA GBAG|FAFA GBAG|FAcf gedc|d2d2d2:|
|:cd|ecAc ecge|fdAd fdad|ecAc ecaf| edcB “^dot added”A3A|
BGDG BGdB|AFDF AFdA|BdBG FEDC|D2D2D2:|

